assets/images/ic_home.svg

<svg width="24" height="24" viewBox="0 0 24 24" fill="none" xmlns="http://www.w3.org/2000/svg">
<path d="M20.86 8.37009L13.93 2.83009C12.86 1.97009 11.13 1.97009 10.07 2.82009L3.14002 8.37009C2.36002 8.99009 1.86002 10.3001 2.03002 11.2801L3.36002 19.2401C3.60002 20.6601 4.96002 21.8101 6.40002 21.8101H17.6C19.03 21.8101 20.4 20.6501 20.64 19.2401L21.97 11.2801C22.13 10.3001 21.63 8.99009 20.86 8.37009ZM12 15.5001C11.337 15.5001 10.7011 15.2367 10.2323 14.7679C9.76341 14.299 9.50002 13.6631 9.50002 13.0001C9.50002 12.3371 9.76341 11.7012 10.2323 11.2323C10.7011 10.7635 11.337 10.5001 12 10.5001C12.6631 10.5001 13.2989 10.7635 13.7678 11.2323C14.2366 11.7012 14.5 12.3371 14.5 13.0001C14.5 13.6631 14.2366 14.299 13.7678 14.7679C13.2989 15.2367 12.6631 15.5001 12 15.5001Z" fill="#7210FF"/>
</svg>

<svg width="24" height="24" viewBox="0 0 24 24" fill="none" xmlns="http://www.w3.org/2000/svg">
    <path d="M10.07 2.82 3.14 8.37c-.78.62-1.28 1.93-1.11 2.91l1.33 7.96c.24 1.42 1.6 2.57 3.04 2.57h11.2c1.43 0 2.8-1.16 3.04-2.57l1.33-7.96c.16-.98-.34-2.29-1.11-2.91l-6.93-5.54c-1.07-.86-2.8-.86-3.86-.01z" stroke="#989898" stroke-width="1.5" stroke-linecap="round" stroke-linejoin="round"/>
    <path d="M12 15.5a2.5 2.5 0 1 0 0-5 2.5 2.5 0 0 0 0 5z" stroke="#989898" stroke-width="1.5" stroke-linecap="round" stroke-linejoin="round"/>
</svg>
